public/icons/svgs/solid/road-barrier.svg

<svg xmlns="http://www.w3.org/2000/svg" viewBox="0 0 640 512"><!--! Font Awesome Free 7.0.0 by @fontawesome - https://fontawesome.com License - https://fontawesome.com/license/free (Icons: CC BY 4.0, Fonts: SIL OFL 1.1, Code: MIT License) Copyright 2025 Fonticons, Inc. --><path fill="currentColor" d="M32 32C14.3 32 0 46.3 0 64L0 448c0 17.7 14.3 32 32 32s32-14.3 32-32L64 266.3 149.2 96 64 96 64 64c0-17.7-14.3-32-32-32zM405.2 96l-74.3 0-5.4 10.7-90.6 181.3 74.3 0 5.4-10.7 90.6-181.3zM362.8 288l74.3 0 5.4-10.7 90.6-181.3-74.3 0-5.4 10.7-90.6 181.3zM202.8 96l-5.4 10.7-90.6 181.3 74.3 0 5.4-10.7 90.6-181.3-74.3 0zm288 192l85.2 0 0 160c0 17.7 14.3 32 32 32s32-14.3 32-32l0-384c0-17.7-14.3-32-32-32s-32 14.3-32 32l0 53.7-85.2 170.3z"/></svg>

<svg xmlns="http://www.w3.org/2000/svg" viewBox="0 0 640 512"><!--! Font Awesome Free 6.2.0 by @fontawesome - https://fontawesome.com License - https://fontawesome.com/license/free (Icons: CC BY 4.0, Fonts: SIL OFL 1.1, Code: MIT License) Copyright 2022 Fonticons, Inc. --><path d="M32 32C14.3 32 0 46.3 0 64V448c0 17.7 14.3 32 32 32s32-14.3 32-32V266.3L149.2 96H64V64c0-17.7-14.3-32-32-32zM405.2 96H330.8l-5.4 10.7L234.8 288h74.3l5.4-10.7L405.2 96zM362.8 288h74.3l5.4-10.7L533.2 96H458.8l-5.4 10.7L362.8 288zM202.8 96l-5.4 10.7L106.8 288h74.3l5.4-10.7L277.2 96H202.8zm288 192H576V448c0 17.7 14.3 32 32 32s32-14.3 32-32V64c0-17.7-14.3-32-32-32s-32 14.3-32 32v53.7L490.8 288z"/></svg>
